src/topics/icons/ifttt.svg

<svg height="136" preserveAspectRatio="xMidYMid" viewBox="0 0 512 136" width="512" xmlns="http://www.w3.org/2000/svg"><path d="m60.936.04h43.33v135.374h-43.33z" fill="#3cf"/><path d="m.06.04h43.27v135.374h-43.27z" fill="#3cf"/><path d="m203.121.04h43.331v135.374h-43.331z" fill="#3cf"/><path d="m319.577.04h43.331v135.374h-43.331z" fill="#3cf"/><path d="m437.365.04h43.331v135.374h-43.331z" fill="#3cf"/><g fill="#f40"><path d="m104.132.04h55.658v43.295h-55.658z"/><path d="m104.132 55.522h38.05v43.331h-38.05z"/><path d="m171.975.04h31.822v43.295h-31.822z"/><path d="m245.911.04h31.822v43.295h-31.822z"/><path d="m288.431.04h31.822v43.295h-31.822z"/><path d="m362.368.04h31.822v43.295h-31.822z"/><path d="m406.241.04h31.822v43.295h-31.822z"/><path d="m480.178.04h31.822v43.295h-31.822z"/></g><path d="m203.121.04h43.331v43.295h-43.331z"/><path d="m319.577.04h43.331v43.295h-43.331z"/><path d="m437.387.04h43.331v43.295h-43.331z"/><path d="m60.936.04h43.33v43.295h-43.33z"/><path d="m60.936 55.522h43.33v43.334h-43.33z"/></svg>

<?xml version="1.0" encoding="UTF-8" standalone="no"?>
<svg width="512px" height="136px" viewBox="0 0 512 136" version="1.1" xmlns="http://www.w3.org/2000/svg" xmlns:xlink="http://www.w3.org/1999/xlink" preserveAspectRatio="xMidYMid">
	<g>
		<path d="M60.936,0.04 L104.266,0.04 L104.266,135.414 L60.936,135.414 L60.936,0.04 L60.936,0.04 Z" fill="#33CCFF"></path>
		<path d="M0.06,0.04 L43.33,0.04 L43.33,135.414 L0.06,135.414 L0.06,0.04 L0.06,0.04 Z" fill="#33CCFF"></path>
		<path d="M203.121,0.04 L246.452,0.04 L246.452,135.414 L203.121,135.414 L203.121,0.04 L203.121,0.04 Z" fill="#33CCFF"></path>
		<path d="M319.577,0.04 L362.908,0.04 L362.908,135.414 L319.577,135.414 L319.577,0.04 L319.577,0.04 Z" fill="#33CCFF"></path>
		<path d="M437.365,0.04 L480.696,0.04 L480.696,135.414 L437.365,135.414 L437.365,0.04 L437.365,0.04 Z" fill="#33CCFF"></path>
		<path d="M104.132,0.04 L159.79,0.04 L159.79,43.335 L104.132,43.335 L104.132,0.04 L104.132,0.04 Z" fill="#FF4400"></path>
		<path d="M104.132,55.522 L142.182,55.522 L142.182,98.853 L104.132,98.853 L104.132,55.522 L104.132,55.522 Z" fill="#FF4400"></path>
		<path d="M171.975,0.04 L203.797,0.04 L203.797,43.335 L171.975,43.335 L171.975,0.04 L171.975,0.04 Z" fill="#FF4400"></path>
		<path d="M245.911,0.04 L277.733,0.04 L277.733,43.335 L245.911,43.335 L245.911,0.04 L245.911,0.04 Z" fill="#FF4400"></path>
		<path d="M288.431,0.04 L320.253,0.04 L320.253,43.335 L288.431,43.335 L288.431,0.04 L288.431,0.04 Z" fill="#FF4400"></path>
		<path d="M362.368,0.04 L394.19,0.04 L394.19,43.335 L362.368,43.335 L362.368,0.04 L362.368,0.04 Z" fill="#FF4400"></path>
		<path d="M406.241,0.04 L438.063,0.04 L438.063,43.335 L406.241,43.335 L406.241,0.04 L406.241,0.04 Z" fill="#FF4400"></path>
		<path d="M480.178,0.04 L512,0.04 L512,43.335 L480.178,43.335 L480.178,0.04 L480.178,0.04 Z" fill="#FF4400"></path>
		<path d="M203.121,0.04 L246.452,0.04 L246.452,43.335 L203.121,43.335 L203.121,0.04 L203.121,0.04 Z" fill="#000000"></path>
		<path d="M319.577,0.04 L362.908,0.04 L362.908,43.335 L319.577,43.335 L319.577,0.04 L319.577,0.04 Z" fill="#000000"></path>
		<path d="M437.387,0.04 L480.718,0.04 L480.718,43.335 L437.387,43.335 L437.387,0.04 L437.387,0.04 Z" fill="#000000"></path>
		<path d="M60.936,0.04 L104.266,0.04 L104.266,43.335 L60.936,43.335 L60.936,0.04 L60.936,0.04 Z" fill="#000000"></path>
		<path d="M60.936,55.522 L104.266,55.522 L104.266,98.856 L60.936,98.856 L60.936,55.522 L60.936,55.522 Z" fill="#000000"></path>
	</g>
</svg>
